X:1
T:Long Lankin
M:3/4
L:1/4
K:Bb
 D/2D/2| G B d| e c d/2c/2| B G B| d2 A| B A d| ^F G A| B A d| G2||\
